X: 1765
T: The Old Schoolmaster
B: australian traditional tunes wiki
B: kameruka bush dance
M:4/4
L:1/8
R: Reel
Q: 1/4=136
K:D
V:1 
A2|:"D"d2f2gfed|f2d2A2FA|"G"B2A2G2AG|"A7"F2E2"D"D2A2|
d2f2gfed|f2d2A2FA|"G"B2A2G2AG|1"A7"F2E2"D"D2A2:|2"A7"F2E2"D"D4||
|:"D"A2A2FAAA|FAAA BAAA|"A7"G2G2EGGG|EGGG AGFG|
"D"A2A2FAAA|FAAA BAAA|"Em"G2F2E2AA|"A7"F2E2"D"D4:|
% abcbook-tune_id 6342d53a05a7c964f848dc1d


% abcbook-boost 0
% abcbook-tablature 
% abcbook-transpose 
% abcbook-lastupdated 1666263589844
% abcbook-soundfonts 
% abcbook-repeats 3
% NFF Book 2006

